X: 34
T:Cooley's Reel
M:4/4
L:1/8
Z:Rachel Marsh,  17/10/1999
K:Em
F|EBBA B2 EB|B2 AB dBAG|(3FED AD BD AD|FDFA dAFD|
EBBA B2 EB|B2 AB defg|afef dBAF|DEFD E2 :|
|: gf|eB B2 egfg|eB B2 gedB|A2 FA DAFA|BAFA defg|
eB B2 egfg|eB B2 defg| afef dBAF|DEFD E2 :|

